packages/core/src/svgs/tokens/branded/REF.svg

<svg width="24" height="24" viewBox="0 0 24 24" fill="none" xmlns="http://www.w3.org/2000/svg">
<path fill-rule="evenodd" clip-rule="evenodd" d="M16.8714 3.57869H7.08961L2 12L7.08961 20.4213H16.8714L22 12L16.8714 3.57869ZM14.5162 6.73667H7.7891V9.36831H13.0524L7.7891 13.5626V17.2611L16.4735 10.2747L14.5162 6.73667ZM11.5545 14.9737L13.7082 13.2132L17.2631 17.2607H13.463L11.5545 14.9737Z" fill="#F38F31"/>
</svg>

<svg xmlns="http://www.w3.org/2000/svg" width="24" height="24" fill="none" viewBox="0 0 24 24">
    <path fill="#F38F31" fill-rule="evenodd" d="M16.871 3.579H7.09L2 12l5.09 8.421h9.781L22 12zm-2.355 3.158H7.79v2.631h5.263L7.79 13.563v3.698l8.685-6.986zm-2.961 8.237 2.153-1.76 3.555 4.047h-3.8z" clip-rule="evenodd"/>
</svg>
